src/actions/24/office-chart-line-stacked.svg

<svg xmlns="http://www.w3.org/2000/svg" viewBox="0 0 24 24">
  <defs id="defs3051">
    <style type="text/css" id="current-color-scheme">
      .ColorScheme-Text {
        color:#2e3440;
      }
      </style>
  </defs>
 <path style="fill:currentColor;fill-opacity:1;stroke:none" 
     d="M 5 4 L 5 10 L 5 11 L 5 16 L 5 17 L 5 18 L 4 18 L 4 19 L 5 19 L 5 20 L 6 20 L 6 19 L 20 19 L 20 18 L 6 18 L 6 17 L 6.0078125 17 L 7 17 L 9 17 L 9 16.992188 L 9.0078125 17 L 11.007812 15 L 12.599609 15 L 14.599609 17 L 18.099609 17 L 20 17 L 20 16 L 18.099609 16 L 15.013672 16 L 13.013672 14 L 13 14 L 12.007812 14 L 11.599609 14 L 10.59375 14 L 8.59375 16 L 7 16 L 6.0078125 16 L 6 16 L 6 13 L 6 12 L 6 11 L 7 11 L 8 11 L 9.8730469 11 L 9.875 11 L 11.875 9 L 12.703125 8.171875 L 13.998047 6.8769531 L 16.121094 9 L 16.126953 8.9960938 L 16.130859 9 L 18.130859 7 L 18.958984 6.171875 L 20 5.1308594 L 19.292969 4.4238281 L 18.251953 5.4648438 L 17.423828 6.2929688 L 16.126953 7.5898438 L 14 5.4648438 L 13.998047 5.4667969 L 13.996094 5.4648438 L 12.46875 6.9921875 L 6 6.9921875 L 6 6 L 6 4 L 5 4 z M 6 7 L 12.460938 7 L 11.996094 7.4648438 L 11.167969 8.2929688 L 9.4609375 10 L 8 10 L 7 10 L 6 10 L 6 7 z "
     class="ColorScheme-Text"
     />
</svg>

<svg viewBox="0 0 24 24" xmlns="http://www.w3.org/2000/svg">
 <defs>
  <style type="text/css">.ColorScheme-Text {
        color:#2e3440;
      }</style>
 </defs>
 <path class="ColorScheme-Text" d="m5 4v6 1 5 1 1h-1v1h1v1h1v-1h14v-1h-14v-1h0.0078125 0.99219 2v-0.007812l0.0078125 0.007812 2-2h1.5918l2 2h3.5 1.9004v-1h-1.9004-3.0859l-2-2h-0.013672-0.99219-0.4082-1.0059l-2 2h-1.5938-0.99219-0.0078125v-3-1-1h1 1 1.873 0.0019531l4.123-4.123 2.123 2.123 0.005859-0.0039062 0.003906 0.0039062 3.8691-3.8691-0.70703-0.70703-3.166 3.166-2.127-2.125-0.001953 0.0019531-0.001953-0.0019531-1.5273 1.5273h-6.4688v-0.99219-2h-1zm1 3h6.4609l-3 3h-1.4609-1-1v-3z" fill="currentColor"/>
</svg>
